wp-content/themes/hekima/images/svg/icon-close.svg

<svg xmlns="http://www.w3.org/2000/svg" width="24" height="24"><g fill="#FFF" fill-rule="evenodd"><path d="M0 0h24v24h-24z" fill="none"/><path d="M20 5.41l-1.41-1.41-6.59 6.59-6.59-6.59-1.41 1.41 6.59 6.59-6.59 6.59 1.41 1.41 6.59-6.59 6.59 6.59 1.41-1.41-6.59-6.59z"/></g></svg>

<svg xmlns="http://www.w3.org/2000/svg" width="24" height="24" viewBox="0 0 24 24">
    <g fill="#FFF" fill-rule="evenodd">
        <path fill-opacity="0" d="M0 0h24v24H0z"/>
        <path d="M20 5.41L18.59 4 12 10.59 5.41 4 4 5.41 10.59 12 4 18.59 5.41 20 12 13.41 18.59 20 20 18.59 13.41 12z"/>
    </g>
</svg>
